X:1
T:Valse \`e Delsay
R:valse
S:"Culture Populaire et Loisirs", Poitou
M:3/4
L:1/8
K:G
D2 |GDB,DGD|BDB,DGD|B2 ADFA|G2 B2 D2 |
GDB,DGD|BDB,DGD|B2 ADFA|1 G4  :|2 G3
|: DGB|d2 dedc|B2 GDGD|c2 ADAD|B2 GDGB|
d2 dedc|B2 GDGD|c2 ADAD|1 G3:|2 G4 ||
